!!!!SEGMENT: pl-wtm--r-1539--003_stefani-jozef--msza-no-1-graduale.krn
!!!cenid: 18xx:1763
!!!COM: Stefani, Józef
!!!COM-rismid: pe30024097
!!!CDT: 1800/04/16-1876/03/19
!!!CNT: Polish
!!!OPR: Msza No 1
!!!OTL: Graduale
!!!OMV: 003
!!!PDT:
!!!AGN: Sacred; Mass
!!!SMS-siglum: PL-Wtm
!!!SMS-shelfmark: R 1539
!!!SMS-shelfwork: 001-003 M
!!!SMS-variant:
!!!SMS-altvar:
!!!NIFC-rismid: 1001120484
!!!URL-scan: http://repozytorium.nifc.pl/skany/pl-wtm-nut--r1539
!!!ONB-nifc: UWAGA: części Mszy: 1. Kyrie, 2. Gloria, 3. Graduale, 4. Credo, 5. Offertorium, 6. Sanctus, 7. Benedictus, 8. Agnus Dei. Uwaga: niektóre części razem z „przygrywkami”
**kern	**kern	**kern	**text	**text	**kern	**kern	**text	**dynam
*part4	*part4	*part3	*part3	*part3	*part2	*part1	*part1	*part1
*staff5	*staff4	*staff3	*staff3	*staff3	*staff2	*staff1	*staff1	*
*Iorgan	*Iempty	*Iempty	*	*	*Ialto	*Isoprn	*	*
*I"Organo	*	*I"Baſso	*	*	*I"Alto	*I"Soprano	*	*
*I'org	*	*I'B	*	*	*I'A	*I'S	*	*
*clefF4	*clefG2	*clefF4	*	*	*clefG2	*clefG2	*	*
*k[]	*k[]	*k[]	*	*	*k[]	*k[]	*	*
*F:	*F:	*F:	*	*	*F:	*F:	*	*
*M3/4	*M3/4	*M3/4	*	*	*M3/4	*M3/4	*	*
*>[A,B,B1,B,B2,C]	*>[A,B,B1,B,B2,C]	*>[A,B,B1,B,B2,C]	*	*	*>[A,B,B1,B,B2,C]	*>[A,B,B1,B,B2,C]	*	*
=1	=1	=1	=1	=1	=1	=1	=1	=1
*>A	*>A	*>A	*	*	*>A	*>A	*	*
*2\right	*	*	*	*	*	*	*	*
!!LO:TX:t=P:problem:all\right:global
[2.E\ [2.G [2.c	8.r	2.ryy	.	.	2.ryy	2.ryy	.	.
.	16cc\	.	.	.	.	.	.	.
.	(8qb/	.	.	.	.	.	.	.
*	*2\right	*	*	*	*	*	*	*
!	!LO:TX:a:i:t=Przegrywka do Graduale.	!	!	!	!	!	!	!
.	2ccT\)	.	.	.	.	.	.	.
=2	=2	=2	=2	=2	=2	=2	=2	=2
*^	*	*	*	*	*	*	*	*
2c/_	2.E\] 2.G]	[(4gg\	2.ryy	.	.	2.ryy	2.ryy	.	.
.	.	16gg\LL]	.	.	.	.	.	.	.
.	.	16ff\	.	.	.	.	.	.	.
.	.	16ee\	.	.	.	.	.	.	.
.	.	16dd\JJ	.	.	.	.	.	.	.
8.c/L]	.	8.cc\L)	.	.	.	.	.	.	.
16c#X/Jk	.	16cc#X|\Jk	.	.	.	.	.	.	.
=3	=3	=3	=3	=3	=3	=3	=3	=3	=3
[2.d/	[>2.F\ [>2.A	8dd\L	2.ryy	.	.	2.ryy	2.ryy	.	.
.	.	16r	.	.	.	.	.	.	.
.	.	16dd\Jk	.	.	.	.	.	.	.
.	.	(8qcc#X/	.	.	.	.	.	.	.
.	.	2ddT\)	.	.	.	.	.	.	.
=4	=4	=4	=4	=4	=4	=4	=4	=4	=4
2d\]	2F\] 2A]	([4aa\	2.ryy	.	.	2.ryy	2.ryy	.	.
.	.	16aa\LL]	.	.	.	.	.	.	.
.	.	16gg\	.	.	.	.	.	.	.
.	.	16ff\	.	.	.	.	.	.	.
.	.	16ee\JJ)	.	.	.	.	.	.	.
8.d/L	8.F\L 8.A	8.dd\L	.	.	.	.	.	.	.
16d#X/Jk	16F#X\Jk 16An	16dd#X|\Jk	.	.	.	.	.	.	.
*v	*v	*	*	*	*	*	*	*	*
!!LO:LB:g=original
=5	=5	=5	=5	=5	=5	=5	=5	=5
[2.E\ [>2.A [2.c#X [2.e	8ee\L	2.ryy	.	.	2.ryy	2.ryy	.	.
.	16r	.	.	.	.	.	.	.
.	16aa\Jk	.	.	.	.	.	.	.
.	(8qgg#X/	.	.	.	.	.	.	.
.	2aaT\)	.	.	.	.	.	.	.
.	(16qqgg#/LL	.	.	.	.	.	.	.
.	16qqaa/JJ)	.	.	.	.	.	.	.
=6	=6	=6	=6	=6	=6	=6	=6	=6
2.E\_ 2.A] 2.c#] 2.e]	(16ccc#X\LL	2.ryy	.	.	2.ryy	2.ryy	.	.
.	16bb\	.	.	.	.	.	.	.
.	16aa\	.	.	.	.	.	.	.
.	16gg#X\JJ	.	.	.	.	.	.	.
.	16ff#X\LL	.	.	.	.	.	.	.
.	16ee\	.	.	.	.	.	.	.
.	16dd\	.	.	.	.	.	.	.
.	16cc#X\JJ	.	.	.	.	.	.	.
.	16b/LL	.	.	.	.	.	.	.
.	16a/	.	.	.	.	.	.	.
.	16g#X/	.	.	.	.	.	.	.
.	16f#X/JJ)	.	.	.	.	.	.	.
=7	=7	=7	=7	=7	=7	=7	=7	=7
2.E\_ [2.B [2.d	8e/	2.ryy	.	.	2.ryy	2.ryy	.	.
.	4ff#X\	.	.	.	.	.	.	.
.	4ee\	.	.	.	.	.	.	.
.	8dd#X\	.	.	.	.	.	.	.
=	=	=	=	=	=	=	=	=
2E;\] 2B] 2d]	8ddn/L	2ryy	.	.	2ryy	2ryy	.	.
.	8f#X/J	.	.	.	.	.	.	.
.	4g#X;/	.	.	.	.	.	.	.
!!LO:LB:g=original
=8||	=8||	=8||	=8||	=8||	=8||	=8||	=8||	=8||
*k[f#c#g#]	*k[f#c#g#]	*k[f#c#g#]	*	*	*k[f#c#g#]	*k[f#c#g#]	*	*
*M3/4	*M3/4	*M3/4	*	*	*M3/4	*M3/4	*	*
*>B	*>B	*>B	*	*	*>B	*>B	*	*
*^	*	*	*	*	*	*	*	*
!	!	!	!	!	!	!	!LO:TX:t=P:problem:all\right:global	!	!
!	!	!	!	!	!	!	!LO:TX:a:t=Andantino.	!	!
4E/	4AA\	4c#/ 4a	4A\	1.) Po-	2.) U-	4c#/	4a/	Po-	.
=9	=9	=9	=9	=9	=9	=9	=9	=9	=9
*	*	*^	*	*	*	*	*	*	*
*	*	*	*	*2\right	*	*	*	*2\right	*	*
[2.E/	[>2.AA\	8cc#/L	4e\	2A\	-wstań-	-znaj-	2e/	2cc#\	-wstań-	.
.	.	8a/	.	.	.	.	.	.	.	.
.	.	8e/	4e\	.	.	.	.	.	.	.
.	.	8cc#/J	.	.	.	.	.	.	.	.
.	.	4b/	8g#\L	4A\	-cie	-cie	4d/	4b\	-cie	.
.	.	.	8d\J	.	.	.	.	.	.	.
=10	=10	=10	=10	=10	=10	=10	=10	=10	=10	=10
2.E/]	2.AA\]	8a/L	4c#\	4A\	świa-	pra-	4c#/	4a/	świa-	.
.	.	8e/	.	.	.	.	.	.	.	.
.	.	8c#/	4c#\	4A\	-tło-	-wdę	4c#/	4a/	-tło-	.
.	.	8a/J	.	.	.	.	.	.	.	.
.	.	4g#/	8e\L	4E\	-ści	w_tem	4e/	4g#/	-ści	.
.	.	.	8e\J	.	.	.	.	.	.	.
*v	*v	*	*	*	*	*	*	*	*	*
*	*v	*v	*	*	*	*	*	*	*
=11	=11	=11	=11	=11	=11	=11	=11	=11
8FF#/L	2.d/ 2.f#	(2F#\	ſy-	sło-	2.d/	2.f#/	ſy-	.
8AA/	.	.	.	.	.	.	.	.
8D/	.	.	.	.	.	.	.	.
8F#/J	.	.	.	.	.	.	.	.
!LO:TX:t=P:problem:mixed beam	!	!	!	!	!	!	!	!
8GG#/L	.	4G#\)	.	.	.	.	.	.
8G#\J	.	.	.	.	.	.	.	.
=12	=12	=12	=12	=12	=12	=12	=12	=12
*^	*	*	*	*	*	*	*	*
8AA\L	2ryy	2c#/ 2e	2A\	-ny	-wie	2c#/	2e/	-ny	.
8C#\	.	.	.	.	.	.	.	.	.
8E\	.	.	.	.	.	.	.	.	.
8A\J	.	.	.	.	.	.	.	.	.
!	!	!	!	!	!	!	!	!	!LO:DY:a
8C#/L	4C#\	4e/ 4a	4C#/	Po-	My	4e/	4a/	Po-	p
8c#/J	.	.	.	.	.	.	.	.	.
=13	=13	=13	=13	=13	=13	=13	=13	=13	=13
8D\L	2ryy	2f#/ 2b	2D\	-kor-	wszy-	2f#/	2b\	-kor-	.
8F#\	.	.	.	.	.	.	.	.	.
8B\	.	.	.	.	.	.	.	.	.
8D\J	.	.	.	.	.	.	.	.	.
!LO:TX:t=P:problem:mixed beam	!	!	!	!	!	!	!	!	!
8BB/L	4BB\	4d/ 4f# 4dd	4BB/	-nem	-scy	4f#/	4dd\	-nem	.
8B\J	.	.	.	.	.	.	.	.	.
*v	*v	*	*	*	*	*	*	*	*
!!LO:LB:g=original
=14	=14	=14	=14	=14	=14	=14	=14	=14
*	*^	*	*	*	*	*	*	*
*	*	*^	*	*	*	*	*	*	*
*^	*	*	*	*	*	*	*	*	*	*
4ryy	8E\L	4g#/	2e\	4B\	(8E\L	czu-	Bra-	4e/	4g#/	czu-	.
.	8D\J	.	.	.	8D\J)	.	.	.	.	.	.
4C#/	8C#\L	4c#/ 4a	.	2ryy	4C#/	-ciem	-cia	4e/	4a/	-ciem	.
.	8A\J	.	.	.	.	.	.	.	.	.	.
!	!	!	!	!	!	!	!	!	!	!	!LO:DY:a
4AA/	8AA\L	[4e/ [>4a [4cc#	4ryy	.	4AA/	prze-	ie-	4a/	4cc#\	prze-	f
.	8A\J	.	.	.	.	.	.	.	.	.	.
*v	*v	*	*	*	*	*	*	*	*	*	*
*	*v	*v	*v	*	*	*	*	*	*	*
=15	=15	=15	=15	=15	=15	=15	=15	=15
!	!LO:TX:t=P:problem:mixed beam	!	!	!	!	!	!	!
[4E\	8e/L] 8a] 8cc#]	2.E\	-ię-	-ste-	2.a/	2.cc#\	-ię-	.
.	8aa\	.	.	.	.	.	.	.
2E\] 2A 2c#	8ee\	.	.	.	.	.	.	.
.	8cc#\	.	.	.	.	.	.	.
.	8a\	.	.	.	.	.	.	.
.	8cc#\J	.	.	.	.	.	.	.
=16	=16	=16	=16	=16	=16	=16	=16	=16
2E\ 2B	2e/ 2g# 2b	2E\	-te	-śmy	2g#/	2b\	-te	.
!	!	!	!	!	!	!	!	!LO:DY:a
[4AA\ [4E [4A	4c#/ 4a	4A\	Pan	My	4c#/	4a\	Pan	mf
=17	=17	=17	=17	=17	=17	=17	=17	=17
*	*^	*	*	*	*	*	*	*
2.AA\_ 2.E_ 2.A_	8cc#/L	4e\	2A\	z_gór-	wszy-	2e/	2cc#\	z_gór-	.
.	8a/	.	.	.	.	.	.	.	.
.	8e/	4e\	.	.	.	.	.	.	.
.	8cc#/J	.	.	.	.	.	.	.	.
.	4b/	8g#\L	4A\	-nej	-scy	4d/	4b\	-nej	.
.	.	8d\J	.	.	.	.	.	.	.
=18	=18	=18	=18	=18	=18	=18	=18	=18	=18
2.AA\] 2.E] 2.A]	8a/L	2ryy	4A\	Nie-	Je-	4c#/	4a/	Nie-	.
.	8e/	.	.	.	.	.	.	.	.
.	8c#/	.	4A\	-ba	-go	4c#/	4a/	-ba	.
.	8a/J	.	.	.	.	.	.	.	.
.	4g#/	8e\L	4E\	Kra-	sy-	4e/	4g#/	Kra-	.
.	.	8d\J	.	.	.	.	.	.	.
*	*v	*v	*	*	*	*	*	*	*
=19	=19	=19	=19	=19	=19	=19	=19	=19
8FF#/L	2.d/ 2.f#	(2F#\	-i-	-no-	2.d/	2.f#^>/	-i-	.
8AA/	.	.	.	.	.	.	.	.
8D/	.	.	.	.	.	.	.	.
8F#/J	.	.	.	.	.	.	.	.
!LO:TX:t=P:problem:mixed beam	!	!	!	!	!	!	!	!
8GG#/L	.	4G#\	.	.	.	.	.	.
8G#\J	.	.	.	.	.	.	.	.
=20	=20	=20	=20	=20	=20	=20	=20	=20
*^	*	*	*	*	*	*	*	*
8AA\L	2ryy	2c#/ 2e	2A\)	-ny,	-wie	2c#/	2e/	-ny	.
8C#\	.	.	.	.	.	.	.	.	.
8E\	.	.	.	.	.	.	.	.	.
8A\J	.	.	.	.	.	.	.	.	.
!LO:TX:t=P:problem:mixed beam	!	!	!	!	!	!	!	!	!LO:DY:a
8C#/L	4C#\	4e/ 4a	4C#/	O-	mi-	4e/	4a/	O-	f
8c#\J	.	.	.	.	.	.	.	.	.
!!LO:PB:g=original
=21	=21	=21	=21	=21	=21	=21	=21	=21	=21
8D\L	2ryy	2e/ 2a	2D/	-gła-	-ło-	2f#/	2b\	-gła-	.
8F#\	.	.	.	.	.	.	.	.	.
8B\	.	.	.	.	.	.	.	.	.
8d\J	.	.	.	.	.	.	.	.	.
!LO:TX:t=P:problem:mixed beam	!	!	!	!	!	!	!	!	!
8BB/L	4BB\	4d/ 4f# 4dd	4BB/	-sza	-ścią	4d/	4dd\	-sza	.
8B\J	.	.	.	.	.	.	.	.	.
*v	*v	*	*	*	*	*	*	*	*
=22	=22	=22	=22	=22	=22	=22	=22	=22
2E\	4c#/ 4a	4E\	Na-	Chwa-	4c#/	4a/	Na-	.
.	4d/ 4b	4E\	-u-	-łę	4d/	4b/	-u-	.
4EE/ 4E	4B/ 4g#	4E\	-ki	Mu	4B/	4g#/	-ki	.
=23	=23	=23	=23	=23	=23	=23	=23	=23
[2.AA/ [2.E	2.d/ 2.g# 2.b	2.AA/ 2.E	świę-	wznie-	2.d/	2.b\	świę-	.
=24	=24	=24	=24	=24	=24	=24	=24	=24
!LO:TX:t=1.	!	!	!	!	!	!	!	!
*>B1	*>B1	*>B1	*	*	*>B1	*>B1	*	*
2AA/] 2E]	2c#/ 2a	2AA/	-te.	-śmy	2c#/	2a/	-te	.
=25:|!	=25:|!	=25:|!	=25:|!	=25:|!	=25:|!	=25:|!	=25:|!	=25:|!
*>B2	*>B2	*>B2	*	*	*>B2	*>B2	*	*
2.AA/ 2.E	2.c#/ 2.a	2.ryy	.	.	2.ryy	2.ryy	.	.
=26||	=26||	=26||	=26||	=26||	=26||	=26||	=26||	=26||
*>C	*>C	*>C	*>C	*	*	*>C	*>C	*
*	*^	*	*	*	*	*	*	*
2.FFn/ 2.Cn 2.Fn	(4.a/	2.cn\ 2.e-X	2.ryy	.	.	2.ryy	2.ryy	.	.
.	16b-X/LL	.	.	.	.	.	.	.	.
.	16a/JJ	.	.	.	.	.	.	.	.
.	8gn/L	.	.	.	.	.	.	.	.
.	8a/J)	.	.	.	.	.	.	.	.
*	*v	*v	*	*	*	*	*	*	*
!!LO:LB:g=original
=27	=27	=27	=27	=27	=27	=27	=27	=27
2.BB-X\ 2.D 2.Gn	2ccn/	2.ryy	.	.	2.ryy	2.ryy	.	.
.	4b-X/	.	.	.	.	.	.	.
=28	=28	=28	=28	=28	=28	=28	=28	=28
*^	*	*	*	*	*	*	*	*
2.D\ 2.Gn	2BB-X\	[4a/	2.ryy	.	.	2.ryy	2.ryy	.	.
.	.	(16a/LL]	.	.	.	.	.	.	.
.	.	16gn/	.	.	.	.	.	.	.
.	.	16f#X/	.	.	.	.	.	.	.
.	.	16g/JJ	.	.	.	.	.	.	.
.	4GGn\	8b-X/L	.	.	.	.	.	.	.
.	.	8dd/J)	.	.	.	.	.	.	.
*v	*v	*	*	*	*	*	*	*	*
=29	=29	=29	=29	=29	=29	=29	=29	=29
2.Cn\ 2.Fn 2.A	4.ccn\	2.ryy	.	.	2.ryy	2.ryy	.	.
.	16bb\LL	.	.	.	.	.	.	.
.	(16cccn\JJ	.	.	.	.	.	.	.
.	16gg#X\LL	.	.	.	.	.	.	.
.	16aa\JJ	.	.	.	.	.	.	.
*	*Xtuplet	*	*	*	*	*	*	*
.	24ee\LL)	.	.	.	.	.	.	.
.	8qggn/	.	.	.	.	.	.	.
.	(24ffn\	.	.	.	.	.	.	.
.	24dd\JJ)	.	.	.	.	.	.	.
=30	=30	=30	=30	=30	=30	=30	=30	=30
[2.Cn\ [2.Gn [2.B-X	4.ccn\	2.ryy	.	.	2.ryy	2.ryy	.	.
!	!LO:TX:t=P:problem:korekta	!	!	!	!	!	!	!
.	8bn/L	.	.	.	.	.	.	.
.	8b-X/	.	.	.	.	.	.	.
.	8gn/J	.	.	.	.	.	.	.
=31	=31	=31	=31	=31	=31	=31	=31	=31
2.C;\] 2.G] 2.B-]	2e;/	2.ryy	.	.	2.ryy	2.ryy	.	.
.	4ryy	.	.	.	.	.	.	.
!!LO:LB:g=original
==	==	==	==	==	==	==	==	==
*-	*-	*-	*-	*-	*-	*-	*-	*-
!!!system-decoration: [(s1,s2,s3)]{(s4,s5)}
!!!RDF**kern: < = below
!!!RDF**kern: > = above
!!!RDF**kern: | = vertical stroke
!!!ENC: Marta Chmielewska
!!!END: 2021-04-22
!!!ENC: Andrzej Gręziak
!!!END: 2021-04-06
